X: 26
T:Lakes March,The,aka. BF12.26
M:2/4
Q:50
C:Browne "C" hand
S:MS12,c1835,Browne Coll.,Lakes
R:March
O:England
A:Lakes
N:There are marks after the tune that might be da segno, or da capo etc.
N:or not..Untitled in MS,,My Title..CGP
Z:vmp.Chris Partington
K:F
c|:"S".f.f.f.f| f(f/g/) af|.f.f.f.a|g/f/e/d/ c/B/A/c/|!
.f.f.f.f|ff/g/ (af)|ggc'c'|e/f/g/e/ f:|!
c|.a/.a/.a/.a/ (ge)|.f/.f/.f/.f/ (ec)|\
.a/.a/.a/.a/ gc'|(g/f/)(e/d/) (ec)|!
.a/.a/.a/.a/ (ge)|.f/.f/.f/.f/ (ec)|a/a/a/a/ g/e/b/a/|\
g/f/e/d/"DC" c/B/A/c/||!
d|(a/g/).f/.e/ dd/f/|e^c dA|(a/g/).f/.e/ dd/f/|e^c "Qu"d2|!
a/-g/.f/.e/ dd/f/|e^c dA a/g/f/e/ db|(a/g/).f/.e/ d/f/e/g/|]
W:untitled in ms  ||
